X:2093
T:Tar shuish ghuillyn aegey tayrn shiu er gerrey 
C:Tom Kermode, Bradda
O:Isle of Man
S:Traditional 
Z:Clague collection
B:Kiaull Vannin #93 
N:See also KV 96,97
M:4/4 
L:1/4
Q:80 
K:G 
E|A^G AB|c2 BA|G2 AG|E3 E/^G/|Ac BA|ED E/F/G|A3 c/d/|
e2 dB|c2 BA|A2 BG|E3 c/d/|eA AA|GE E/F ^G|A3|| 

